X: 5
T: Washington Artillery's March  v.2
P: Piffero secondo b0021
O: camp dupont
F: http://ancients.sudburymuster.org/mus/ssp/pdf/brandywF.pdf
Z: 2019 John Chambers <jc:trillian.mit.edu>
M: 2/4
L: 1/16
K: D
z2 |\
F2F2 F2F2 | G2G2 F2D2 | ABcd e2d2 | d4 c2AG |\
F2F2 F2F2 | G2G2 F2D2 | EFGA BAGF | G4 F2 :|
|: A2 |\
A2A2 AAA2 | d2AA A2d2 | e2e2 d2d2 | Td4 c2A2 |\
A2A2 AAA2 | d2AA A2F2 | EFGA BGFE | G4 F2 :|
|: A2 |\
d2A2 f2A2 | d2Ad f2A2 | d2A2 d2f2 | d4 d2d2 |\
e2c2 c2fe | d2F2 A2F2 | EFGA BGFE | G4 F2 :|

%%center (drum bridge, first of September, 8 bars)


